202404-ahaslides-april/assets/images/foryou-mb.svg

<svg width="101" height="107" viewBox="0 0 101 107" fill="none" xmlns="http://www.w3.org/2000/svg">
<g clip-path="url(#clip0_573_3322)">
<rect y="99.9985" width="46.2857" height="8" transform="rotate(-90 0 99.9985)" fill="#2C7C17"/>
<rect x="99.4277" y="7.99854" width="45.7143" height="8" transform="rotate(180 99.4277 7.99854)" fill="#2C7C17"/>
<rect x="-23.1719" y="77.1018" width="159.592" height="32.334" transform="rotate(-45 -23.1719 77.1018)" fill="#39A61D"/>
<path d="M62.3941 22.7227C60.4304 24.6865 58.0182 24.4562 56.4545 22.8924L51.3633 17.8013L52.927 16.2376L57.8485 21.159C58.9394 22.25 60.0668 21.9954 60.8668 21.1954C61.6668 20.3953 61.9214 19.268 60.8304 18.177L55.909 13.2556L57.4727 11.6919L62.5639 16.783C64.1276 18.3467 64.3579 20.759 62.3941 22.7227Z" fill="white"/>
<path d="M54.4153 30.7022C52.0758 33.0417 48.7423 32.9811 46.4028 30.6416C44.0633 28.302 44.0027 24.9685 46.3422 22.629C48.6817 20.2895 51.9909 20.3744 54.3305 22.7139C56.67 25.0534 56.7548 28.3626 54.4153 30.7022ZM52.8516 29.1384C54.2941 27.6959 54.185 25.7201 52.7546 24.2897C51.3242 22.8593 49.3484 22.7502 47.9059 24.1927C46.4634 25.6352 46.5361 27.6475 47.9665 29.0778C49.3969 30.5082 51.4091 30.5809 52.8516 29.1384Z" fill="white"/>
<path d="M46.0963 38.8276L42.7507 35.482L35.417 33.7485L37.211 31.9545L41.8901 33.0697L40.7748 28.3907L42.581 26.5845L44.3144 33.9182L47.66 37.2639L46.0963 38.8276Z" fill="white"/>
<path d="M34.2347 50.6885L26.3555 42.8093L30.1375 39.0273C31.3133 37.8515 33.4346 37.5242 35.1317 39.2213C36.4408 40.5304 36.5378 42.1063 35.9681 43.3063L40.5744 44.3488L38.7682 46.155L34.3801 45.161L33.1073 46.4338L35.7984 49.1248L34.2347 50.6885ZM31.58 44.9064L33.5437 42.9427C34.1256 42.3608 34.2104 41.4517 33.5558 40.7971C32.8891 40.1304 31.98 40.2153 31.3981 40.7971L29.4344 42.7608L31.58 44.9064Z" fill="white"/>
<path d="M29.4075 55.71C27.068 58.0495 23.7345 57.9889 21.395 55.6494C19.0555 53.3098 18.9948 49.9763 21.3344 47.6368C23.6739 45.2973 26.9831 45.3822 29.3226 47.7217C31.6622 50.0612 31.747 53.3705 29.4075 55.71ZM27.8438 54.1463C29.2863 52.7038 29.1772 50.7279 27.7468 49.2975C26.3164 47.8671 24.3406 47.7581 22.8981 49.2005C21.4556 50.643 21.5283 52.6553 22.9587 54.0856C24.3891 55.516 26.4013 55.5888 27.8438 54.1463Z" fill="white"/>
<path d="M19.3753 65.5481L11.4961 57.6689L16.8661 52.299L18.3449 53.7778L14.5387 57.5841L16.4903 59.5357L20.0662 55.9598L21.533 57.4265L17.957 61.0024L20.939 63.9844L19.3753 65.5481Z" fill="white"/>
</g>
<defs>
<clipPath id="clip0_573_3322">
<rect width="106.286" height="100.571" fill="white" transform="translate(0 106.286) rotate(-90)"/>
</clipPath>
</defs>
</svg>

<svg xmlns="http://www.w3.org/2000/svg" width="101" height="107" fill="none" viewBox="0 0 101 107">
  <g clip-path="url(#a)">
    <path fill="#2C7C17" d="M0 99.999V53.713h8v46.286zm99.428-92H53.714v-8h45.714z"/>
    <path fill="#39A61D" d="M-23.172 77.102 89.677-35.747l22.863 22.864L-.308 99.966z"/>
    <path fill="#fff" d="M62.394 22.723c-1.964 1.963-4.376 1.733-5.94.17l-5.09-5.092 1.563-1.563 4.922 4.921c1.09 1.091 2.218.836 3.018.036.8-.8 1.054-1.927-.037-3.018l-4.921-4.921 1.564-1.564 5.09 5.091c1.565 1.564 1.795 3.976-.169 5.94Zm-7.979 7.979c-2.34 2.34-5.673 2.28-8.012-.06-2.34-2.34-2.4-5.674-.06-8.013 2.339-2.34 5.648-2.255 7.987.085 2.34 2.34 2.425 5.649.085 7.988Zm-1.563-1.564c1.442-1.442 1.333-3.418-.097-4.848-1.43-1.43-3.407-1.54-4.85-.097-1.442 1.442-1.369 3.454.062 4.885 1.43 1.43 3.442 1.503 4.885.06Zm-6.756 9.69-3.345-3.346-7.334-1.733 1.794-1.795 4.68 1.116-1.116-4.68 1.806-1.806 1.733 7.334 3.346 3.346-1.564 1.564Zm-11.861 11.86-7.88-7.879 3.782-3.782c1.176-1.175 3.298-1.503 4.995.194 1.309 1.31 1.406 2.885.836 4.085l4.606 1.043-1.806 1.806-4.388-.994-1.273 1.273 2.691 2.69-1.563 1.564Zm-2.655-5.782 1.964-1.963c.582-.582.666-1.491.012-2.146-.667-.667-1.576-.582-2.158 0l-1.964 1.964 2.146 2.145ZM29.407 55.71c-2.339 2.34-5.672 2.279-8.012-.06-2.34-2.34-2.4-5.674-.06-8.013 2.339-2.34 5.648-2.255 7.988.085 2.34 2.34 2.424 5.648.084 7.988Zm-1.563-1.564c1.442-1.442 1.333-3.418-.097-4.849-1.43-1.43-3.406-1.539-4.849-.096-1.442 1.442-1.37 3.454.06 4.885 1.431 1.43 3.443 1.503 4.886.06Zm-8.469 11.402-7.879-7.88 5.37-5.369 1.479 1.479-3.806 3.806 1.951 1.952 3.576-3.576 1.467 1.466-3.576 3.576 2.982 2.982-1.564 1.564Z"/>
  </g>
  <defs>
    <clipPath id="a">
      <path fill="#fff" d="M0 0h106.286v100.571H0z" transform="rotate(-90 53.143 53.143)"/>
    </clipPath>
  </defs>
</svg>
